X: 12
T: Home Ruler, The
C: Frank McCollum
Z: UPipes & harp
S: https://thesession.org/tunes/310#setting46427
R: hornpipe
M: 4/4
L: 1/8
K: Dmaj
D|:D2FA DAFA|dfed B2dB|A2AB AFDE|FDFA DEFE|
D2FA DAFA|dfed B2dB|A2AB AFDE|F2D2 D2 D2:|
|:Addc d2 d f|afbf afed|efed BAFA|fded BdBA|
dd2c d2 d f|afbf afed|efed BAdB|AFEF D2 D2:|

